assets/icons/qvision/phone_disabled.svg

<svg width="24" height="24" viewBox="0 0 24 24" fill="none" xmlns="http://www.w3.org/2000/svg">
<g clip-path="url(#clip0_147_1947)">
<path d="M17.34 14.54L15.91 13.11C16.47 12.38 16.96 11.61 17.38 10.79L15.18 8.59C14.9 8.31 14.82 7.92 14.93 7.57C15.3 6.45 15.5 5.25 15.5 4C15.5 3.45 15.95 3 16.5 3H20C20.55 3 21 3.45 21 4C21 7.98 19.63 11.64 17.34 14.54ZM14.52 17.35C11.63 19.64 7.97001 21 4.00001 21C3.45001 21 3.00001 20.55 3.00001 20V16.51C3.00001 15.96 3.45001 15.51 4.00001 15.51C5.24001 15.51 6.45002 15.31 7.57001 14.94C7.92001 14.82 8.32001 14.91 8.59001 15.18L10.79 17.38C11.6 16.96 12.37 16.48 13.09 15.92L1.39001 4.22L2.81001 2.81L21.19 21.2L19.78 22.61L14.52 17.35Z" fill="#323232"/>
</g>
<defs>
<clipPath id="clip0_147_1947">
<rect width="24" height="24" fill="white"/>
</clipPath>
</defs>
</svg>

<svg xmlns="http://www.w3.org/2000/svg" height="24" viewBox="0 0 24 24" width="24"><path d="M0 0h24v24H0z" fill="none"/><path d="M17.34 14.54l-1.43-1.43c.56-.73 1.05-1.5 1.47-2.32l-2.2-2.2c-.28-.28-.36-.67-.25-1.02.37-1.12.57-2.32.57-3.57 0-.55.45-1 1-1H20c.55 0 1 .45 1 1 0 3.98-1.37 7.64-3.66 10.54zm-2.82 2.81C11.63 19.64 7.97 21 4 21c-.55 0-1-.45-1-1v-3.49c0-.55.45-1 1-1 1.24 0 2.45-.2 3.57-.57.35-.12.75-.03 1.02.24l2.2 2.2c.81-.42 1.58-.9 2.3-1.46L1.39 4.22l1.42-1.41L21.19 21.2l-1.41 1.41-5.26-5.26z"/></svg>
